!!!COM: Clementi, Muzio
!!!CDT: 1752/01/23/-1832/03/10/
!!!ODT: ~1800///
!!!OTL: Sonata No. 2 in G Major, Op. 36, Mvmt. 1
!!!OPS: Op. 36
!!!ONM: No. 2
!!!OMV: 1. Allegretto
**kern	**kern	**dynam
*staff2	*staff1	*staff1/2
*Ipiano	*Ipiano	*Ipiano
*clefF4	*clefG2	*clefG2
*k[f#]	*k[f#]	*k[f#]
*G:	*G:	*G:
*M2/4	*M2/4	*M2/4
*MM120	*MM120	*MM120
8r	8dd\	.
=1	=1	=1
8G\L	(8dd\L	.
8B\	8b\)	.
8d\	(8b\	.
8B\J	8gg\J)	.
=2	=2	=2
8G\L	4.gg\	.
8B\	.	.
8d\	.	.
8B\J	16ff#\LL	.
.	16ee\JJ	.
=3	=3	=3
8F#\L	8dd\L	.
8A\	8dd\J	.
8d\	16dd\LL	.
.	16ee\	.
8A\J	16dd\	.
.	16cc\JJ	.
=4	=4	=4
8G\L	(8b\L	.
8B\	8dd\J)	.
8d\	8r	.
8B\J	8gg\	.
=5	=5	=5
8G\L	(8gg\L	.
8B\	8dd\)	.
8d\	(8dd\	.
8B\J	8bb\J)	.
=6	=6	=6
8G\L	4.bb\	.
8B\	.	.
8e\J	.	.
8r	16gg\LL	.
.	16ee\JJ	.
=7	=7	=7
8A\ 8f#\L	8dd\L	p
8A\ 8f#\	8dd\J	.
8A\ 8e\	16dd\LL	.
.	16cc#\	.
8A\ 8e\J	16b\	.
.	16cc#\JJ	.
=8	=8	=8
8D\L	4dd\	.
8d\	.	.
8D\	8r	.
8d\J	16aa\LL	.
.	16gg\JJ	.
=9	=9	=9
8D\L	16ff#\LL	.
.	16ee\	.
8d\	16dd\	.
.	16cc#\JJ	.
8D\	16b\LL	.
.	16cc#\	.
8d\J	16dd\	.
.	16b\JJ	.
=10	=10	=10
16D\LL	8a/	.
16E\	.	.
16F#\	8r	.
16G\JJ	.	.
16A\LL	8r	.
16B\	.	.
16c#\	16aa\LL	.
16d\JJ	16gg\JJ	.
=11	=11	=11
8D\L	16ff#\LL	.
.	16ee\	.
8d\	16dd\	.
.	16cc#\JJ	.
8D\	16b\LL	.
.	16cc#\	.
8d\J	16dd\	.
.	16b\JJ	.
=12	=12	=12
16D\LL	8a/	.
16F#\	.	.
16A\	8r	.
16d\JJ	.	.
4r	16ddd\LL	f
.	16aa\	.
.	16ff#\	.
.	16dd\JJ	.
=13	=13	=13
8G\ 8B\L	8ee\L	.
8G\ 8B\	8ee\	.
8A\	8cc#\ 8aa\	.
8A\J	8cc#\ 8aa\J	.
=14	=14	=14
8D\L	4ee\ (4gg\	.
8d\	.	.
8D\	8dd\ 8ff#\L)	.
8d\J	16aa\L	.
.	16gg\JJ	.
=15	=15	=15
8D\L	16ff#\LL	.
.	16ee\	.
8d\	16dd\	.
.	16cc#\JJ	.
8D\	16b\LL	.
.	16cc#\	.
8d\J	16dd\	.
.	16b\JJ	.
=16	=16	=16
8D\L	16a/LL	.
.	16g/	.
8d\	16f#/	.
.	16g/JJ	.
8D\	8a\L	.
8d\J	16aa\L	.
.	16gg\JJ	.
=17	=17	=17
8D\L	16ff#\LL	.
.	16ee\	.
8d\	16dd\	.
.	16cc#\JJ	.
8D\	16b\LL	.
.	16cc#\	.
8d\J	16dd\	.
.	16b\JJ	.
=18	=18	=18
16D\LL	8a/	.
16F#\	.	.
16A\	8r	.
16d\JJ	.	.
4r	16dd\LL	.
.	16ff#\	.
.	16aa\	.
.	16ddd\JJ	.
=19	=19	=19
8G\L	16ccc#\LL	.
.	16bb\	.
8E\	16aa\	.
.	16gg\JJ	.
8A\	16ff#\LL	.
.	16ee\	.
8AA\J	16dd\	.
.	16cc#\JJ	.
=20	=20	=20
8D\	16dd\LL	.
.	16ff#\	.
8r	16aa\	.
.	16ff#\JJ	.
8r	16aa\LL	.
.	16ff#\	.
8AA/	16gg\	.
.	16ee\JJ	.
=21	=21	=21
8D\	16dd\LL	.
.	16ff#\	.
8r	16aa\	.
.	16ff#\JJ	.
8r	16aa\LL	.
.	16ff#\	.
8AA/	16gg\	.
.	16ee\JJ	.
=22	=22	=22
8D/L	4dd\	.
8DD/	.	.
8DD/J	8r	.
=:|!|:	=:|!|:	=:|!|:
8r	8dd\	p
=23	=23	=23
4r	(8dd\L	.
.	8b\)	.
8r	(8b\	.
8G#\	8ffn\J)	.
=24	=24	=24
8G#\L	(4.ffn\	.
8B\ 8d\	.	.
8B\ 8d\	.	.
8G#\J	16ee\LL)	p
.	16dd\JJ	.
=25	=25	=25
8A\L	8ccn\L	.
8r	8cc\J	.
8E\J	16cc\LL	.
.	16b\	.
8r	16a\	.
.	16b\JJ	.
=26	=26	=26
8AA/	8cc\L	.
8r	8aa\J	.
8r	16ee\LL	.
.	16ffn\	.
8G#\	16ee\	.
.	16dd\JJ	.
=27	=27	=27
8A\	8cc\L	.
8r	8aa\J	.
8r	(16ee\LL	.
.	16ffn\	.
8G#\	16ee\	.
.	16dd\JJ)	.
=28	=28	=28
8A\L	16cc\LL	.
.	16dd\	<
8AA\	16cc\	.
.	16b\JJ	.
8A\	16a\LL	.
.	16b\	.
8Gn\J	16cc\	.
.	16dd\JJ	.
=29	=29	=29
8F#\L	(4.ee\	.
8A\ 8c\	.	.
8A\ 8c\	.	.
8F#\J	16dd\LL)	p
.	16cc\JJ	.
=30	=30	=30
8G\L	16b\LL	.
.	16dd\	.
8r	16cc\	.
.	16b\JJ	.
8D\J	16a/LL	.
.	16cc/	.
8r	16b/	.
.	16a/JJ	.
=31	=31	=31
2EE/ 2E/	16g/LL	f
.	16a/	.
.	16g/	.
.	16f#/JJ	.
.	16g/LL	.
.	16a/	.
.	16b/	.
.	16cc#/JJ	.
=32	=32	=32
8D/L	8dd\	.
8DD/J	8r	.
4r	16f#/LL	.
.	16g/	.
.	16f#/	.
.	16e/JJ	.
=33	=33	=33
8D/L	8d/	.
8DD/J	8r	.
4r	16g/LL	.
.	16a/	.
.	16g/	.
.	16f#/JJ	.
=34	=34	=34
8D/L	8e/	.
8DD/J	8r	.
4r	16a/LL	.
.	16b/	.
.	16a/	.
.	16g/JJ	.
=35	=35	=35
8D/L	16f#/LL	p
.	16g/	.
8DD/	16f#/	.
.	16e/JJ	.
8D/	16f#/LL	.
.	16g/	.
8DD/J	16a/	.
.	16b/JJ	.
=36	=36	=36
8D\	8ccn\	.
8r	8r	.
4r	8r	.
.	8dd\	<
=37	=37	=37
8G\L	(8dd\L	.
8B\	8b\)	.
8d\	(8b\	.
8B\J	8gg\J)	.
=38	=38	=38
8G\L	4.gg\	.
8B\	.	.
8d\	.	.
8B\J	16ff#\LL	.
.	16ee\JJ	.
=39	=39	=39
8F#\L	8dd\L	>
8A\	8dd\J	.
8d\	16dd\LL	.
.	16ee\	.
8A\J	16dd\	.
.	16cc\JJ	.
=40	=40	=40
8G/L	(8b\L	.
8D/	8dd\J)	.
8BB/	8r	.
8GG/J	8b\	.
=41	=41	=41
8C\L	8b/L	<
8E\	8a/	.
8A\	8a/	.
8E\J	8ee/J	.
=42	=42	=42
8C\L	4.ee\	.
8E\	.	.
8A\J	.	.
8r	(16cc\LL	.
.	16a\JJ)	.
=43	=43	=43
8D\ 8B\L	8g/L	.
8D\ 8B\	8g/J	.
8D\ 8A\	16g/LL	.
.	16f#/	.
8D\ 8A\J	16e/	.
.	16f#/JJ	.
=44	=44	=44
8GG/L	4g/	.
8G/	.	.
8GG/	8r	.
8G/J	16dd\LL	p
.	16cc\JJ	.
=45	=45	=45
8GG/L	16b/LL	.
.	16a/	.
8G/	16g/	.
.	16f#/JJ	.
8GG/	16e/LL	.
.	16f#/	.
8G/J	16g/	.
.	16e/JJ	.
=46	=46	=46
16GG/LL	8d/	.
16AA/	.	.
16BB/	8r	.
16C/JJ	.	.
16D\LL	8r	.
16E\	.	.
16F#\	16dd\LL	.
16G\JJ	16cc\JJ	.
=47	=47	=47
8GG/L	16b/LL	<
.	16a/	.
8G/	16g/	.
.	16f#/JJ	.
8GG/	16e/LL	.
.	16f#/	.
8G/J	16g/	.
.	16e/JJ	.
=48	=48	=48
8GG/L	8d/	.
8BB/	16gg\LL	f
.	16ff#\JJ	.
8D/	16ee\LL	.
.	16dd\	.
8G/J	16cc\	.
.	16b\JJ	.
=49	=49	=49
8C/L	8a/L	.
8C/	8a/	.
8D/	8f#/ 8dd/	.
8D/J	8f#/ 8dd/J	.
=50	=50	=50
8GG/L	4a\ 4cc\	.
8G/	.	.
8GG/	8g/ 8b/	.
8G/J	16bb\LL	.
.	16aa\JJ	.
=51	=51	=51
8GG/L	16gg\LL	.
.	16ff#\	.
8G/	16ee\	.
.	16dd#\JJ	.
8GG/	16ee\LL	.
.	16ff#\	.
8G/J	16gg\	.
.	16ee\JJ	.
=52	=52	=52
8GG/L	(16ddn\LL	.
.	16cc\	.
8G/	16b\	.
.	16cc\JJ)	.
8GG/	8dd\	.
8G/J	16bb\LL	.
.	16aa\JJ	.
=53	=53	=53
8GG/L	16gg\LL	.
.	16ff#\	.
8G/	16ee\	.
.	16dd#\JJ	.
8GG/	16ee\LL	.
.	16ff#\	.
8G/J	16gg\	.
.	16ee\JJ	.
=54	=54	=54
8GG/L	16ddn\LL	.
.	16gg\	.
8G/	16bb\	.
.	16ddd\JJ	.
8D/	16ccc\LL	.
.	16bb\	.
8BB/J	16aa\	.
.	16gg\JJ	.
=55	=55	=55
8C/L	16ff#\LL	.
.	16ee\	.
8AA/	16dd\	.
.	16cc\JJ	.
8D/	16b/LL	.
.	16a/	.
8DD/J	16g/	.
.	16f#/JJ	.
=56	=56	=56
8GG/	16g\LL	.
.	16b\	.
8r	16dd\	.
.	16b\JJ	.
8r	16dd\LL	.
.	16b\	.
8D\	16cc\	.
.	16a\JJ	.
=57	=57	=57
8G\	16g\LL	.
.	16b\	.
8r	16dd\	.
.	16b\JJ	.
8r	16dd\LL	.
.	16b\	.
8D\	16cc\	.
.	16a\JJ	.
=58	=58	=58
8GG/L	8g/	.
8G/	8r	.
8D/	8b\ 8dd\ 8gg\	.
8BB/J	8r	.
=59	=59	=59
4GG/	4b\ 4dd\ 4gg\	.
8r	8r	.
==:|!	==:|!	==:|!
*-	*-	*-
!!!ENC: Craig Stuart Sapp
!!!END: 2004/11/26/
